X:205
T: DA DRUNTEN IN DEM TIEFEN THALE
N: E0108C
O: Europa, Mitteleuropa, Deutschland, Lahngegend; Taunus
R: erzaehlendes Volks - Lied, Sage, Liebe, Leid, Tod
M: 4/4
L: 1/8
K: Eb
EF | G2G2GBAG | GFF2z2
FG | A2A2AcBA | AGG2z2
GA | B2GAB2cd | e2dcc2B2 |
B2cde2dc | B2ABG2
GA | B2GAB2cd | e2dcc2B2 |
B2cde2dc | B2ABG2

@@@ Tune index: 3855
